images/icons/people.svg

<svg width="24" height="24" viewBox="0 0 24 24" fill="none" xmlns="http://www.w3.org/2000/svg">
<rect width="24" height="24" rx="6" fill="#F5F7F4"/>
<g clip-path="url(#clip0_43_173)">
<path d="M16.9206 12.8621C17.8095 12.8621 18.5303 12.1418 18.5303 11.2528C18.5303 10.3639 17.8095 9.64307 16.9206 9.64307C16.0318 9.64307 15.311 10.3639 15.311 11.2528C15.3111 12.1418 16.0318 12.8621 16.9206 12.8621Z" fill="#5F8F6F"/>
<path d="M18.9818 14.4131C18.91 13.9821 18.5538 13.3789 18.2841 13.1095C18.2486 13.0737 18.0898 13.0655 18.047 13.0921C17.7191 13.2937 17.334 13.4124 16.9207 13.4124C16.5078 13.4124 16.1227 13.2937 15.7948 13.0921C15.7517 13.0655 15.5932 13.0737 15.5577 13.1095C15.4823 13.1848 15.4 13.2852 15.3198 13.4016C15.5368 13.8101 15.7089 14.244 15.771 14.6177C15.833 14.9923 15.8129 15.347 15.7125 15.6703C16.069 15.7993 16.4965 15.8559 16.9206 15.8559C18.0268 15.8559 19.1589 15.4723 18.9818 14.4131Z" fill="#5F8F6F"/>
<path d="M11.9586 12.1829C13.3992 12.1829 14.5673 11.0149 14.5673 9.57428C14.5673 8.13408 13.3992 6.96606 11.9586 6.96606C10.5182 6.96606 9.35059 8.13408 9.35059 9.57428C9.35059 11.0149 10.5181 12.1829 11.9586 12.1829Z" fill="#5F8F6F"/>
<path d="M14.1679 12.5825C14.1113 12.5262 13.8543 12.5118 13.7844 12.555C13.2526 12.8822 12.6285 13.0738 11.959 13.0738C11.29 13.0738 10.6657 12.8822 10.1342 12.555C10.0643 12.5117 9.80725 12.5262 9.75065 12.5825C9.31258 13.0202 8.73521 13.9985 8.61906 14.6959C8.33266 16.4138 10.1676 17.034 11.959 17.034C13.7509 17.034 15.5859 16.4138 15.2995 14.6959C15.1833 13.9985 14.606 13.0202 14.1679 12.5825Z" fill="#5F8F6F"/>
<path d="M7.07948 12.8621C7.96821 12.8621 8.68899 12.1418 8.68899 11.2528C8.68899 10.3639 7.96821 9.64307 7.07948 9.64307C6.19051 9.64307 5.46973 10.3639 5.46973 11.2528C5.46973 12.1418 6.19051 12.8621 7.07948 12.8621Z" fill="#5F8F6F"/>
<path d="M8.14711 14.6177C8.21312 14.2252 8.39936 13.7631 8.63285 13.3358C8.56777 13.2469 8.50272 13.1695 8.44267 13.1095C8.40715 13.0737 8.24861 13.0655 8.20555 13.0921C7.87767 13.2937 7.49253 13.4124 7.07948 13.4124C6.66637 13.4124 6.28099 13.2937 5.95338 13.0921C5.91051 13.0655 5.75153 13.0737 5.71601 13.1095C5.44566 13.3789 5.09033 13.9821 5.01836 14.4131C4.8415 15.4723 5.97331 15.8558 7.07948 15.8558C7.47424 15.8558 7.87288 15.8072 8.21312 15.6961C8.10591 15.3662 8.08321 15.0033 8.14711 14.6177Z" fill="#5F8F6F"/>
</g>
<defs>
<clipPath id="clip0_43_173">
<rect width="14" height="14" fill="white" transform="translate(5 5)"/>
</clipPath>
</defs>
</svg>

<svg xmlns="http://www.w3.org/2000/svg" width="24" height="24" fill="none" viewBox="0 0 24 24"><rect width="24" height="24" fill="#f5f7f4" rx="6"/><g fill="#5f8f6f" clip-path="url(#a)"><path d="M16.92 12.862a1.61 1.61 0 1 0 .001-3.219 1.61 1.61 0 0 0 0 3.22M18.982 14.413c-.072-.43-.428-1.034-.698-1.303-.035-.036-.194-.044-.237-.018a2.14 2.14 0 0 1-2.252 0c-.043-.027-.202-.018-.237.018a2 2 0 0 0-.238.292c.217.408.389.842.451 1.216s.042.729-.059 1.052c.357.13.785.186 1.209.186 1.106 0 2.238-.384 2.06-1.443M11.959 12.183a2.609 2.609 0 1 0 0-5.218 2.609 2.609 0 0 0 0 5.218M14.168 12.583c-.057-.057-.314-.071-.384-.028a3.47 3.47 0 0 1-3.65 0c-.07-.043-.327-.029-.383.027-.438.438-1.016 1.416-1.132 2.114-.286 1.718 1.549 2.338 3.34 2.338 1.792 0 3.627-.62 3.34-2.338-.116-.697-.693-1.676-1.131-2.113M7.08 12.862a1.61 1.61 0 1 0 0-3.219 1.61 1.61 0 0 0 0 3.22M8.147 14.618c.066-.393.252-.855.486-1.282a2 2 0 0 0-.19-.226c-.036-.036-.194-.044-.237-.018a2.14 2.14 0 0 1-2.253 0c-.042-.027-.201-.018-.237.018-.27.269-.626.872-.698 1.303-.176 1.06.955 1.443 2.061 1.443.395 0 .794-.049 1.134-.16a2.26 2.26 0 0 1-.066-1.078"/></g><defs><clipPath id="a"><path fill="#fff" d="M5 5h14v14H5z"/></clipPath></defs></svg>
